src/Icon/svgs/coupon.svg

<svg width="24" height="24" viewBox="0 0 24 24" fill="none" xmlns="http://www.w3.org/2000/svg">
<path d="M17.5 4C17.2239 4 17.0064 4.22733 16.9383 4.49494C16.718 5.36012 15.9337 6 15 6C14.0663 6 13.282 5.36012 13.0617 4.49494C12.9936 4.22733 12.7761 4 12.5 4H2C1.44772 4 1 4.44772 1 5V19C1 19.5523 1.44772 20 2 20H12.5C12.7761 20 12.9936 19.7727 13.0617 19.5051C13.282 18.6399 14.0663 18 15 18C15.9337 18 16.718 18.6399 16.9383 19.5051C17.0064 19.7727 17.2239 20 17.5 20H22C22.5523 20 23 19.5523 23 19V5C23 4.44772 22.5523 4 22 4H17.5Z" fill="#1B1C1D"/>
</svg>

<svg xmlns="http://www.w3.org/2000/svg" width="24" height="24" fill="none"  xmlns:v="https://vecta.io/nano"><path d="M17.5 4c-.276 0-.494.227-.562.495a2 2 0 0 1-3.877 0C12.994 4.227 12.776 4 12.5 4H2a1 1 0 0 0-1 1v14a1 1 0 0 0 1 1h10.5c.276 0 .494-.227.562-.495a2 2 0 0 1 3.877 0c.068.268.286.495.562.495H22a1 1 0 0 0 1-1V5a1 1 0 0 0-1-1h-4.5z" fill="#1b1c1d"/></svg>
